X:1
T:SkyLark
%%score 1 2 3
L:1/8
M:3/4
K:D
V:1 treble nm="Soprano" snm="S."
V:2 treble-8 nm="Tenor" snm="T."
V:3 bass nm="Bass" snm="B."
V:1
 d2 | B2 A2 B2 | F4 G2 | A4 d2 | c4 A2 | A4 ^G2 | AB ^G3 A | A4 F2 | D4 D2 | F4 G2 | A4 d2 | %11
 c4 A2 | A4 ^G2 | AB ^G3 A | A4 c2 | c2 d2 e2 | A4 f2 | e2 d2 fe | d4 c2 | B4 f2 | e2 d c2 B | %21
 B4 e2 | A2 B2 c2 | d4 f2 | e2 f2 g2 | a4 g2 | d4 a2 | g2 f e2 f | f4 |[M:2/2] z2 fe fegd | %30
 dd d2 d2 gf | c2 dc dcdc | BAGF E2 G2 | B2 A>G F4 |] %34
V:2
 G2 | G2 F2 G2 | G2 B2 c2 | d2 F2 ^G2 | A4 f2 | e3 f d2 | cd B3 A | A4 A2 | G2 F2 G2 | G3 A c2 | %10
 d2 F2 ^G2 | A4 f2 | e2 A2 d2 | cd B3 A | A4 e2 | A2 B2 c2 | d4 B2 | ^A2 B2 c2 | F4 ef | d3 c B2 | %20
 c2 B ^A2 B | B4 AG | F4 G2 | A4 d2 | c2 d2 e2 | A4 g2 | f3 e d2 | e2 d c2 d | d4 | %29
[M:2/2] z2 dc dcBA | BAGF BAcd | eAfe fegf | edcd eA d2 | dec>d d4 |] %34
V:3
 D,2 | D,4 D,2 | D,4 E,2 | F,4 B,2 | A,4 D,2 | C,4 B,,2 | A,,2 E,4 | A,,4 D,2 | B,,2 A,,2 F,,2 | %9
 D,4 E,2 | F,4 B,2 | A,4 D,2 | C,4 B,,2 | A,,2 E,4 | A,,4 A,,2 | A,4 G,2 | F,2 E,2 D,2 | %17
 C,2 B,,2 ^A,,2 | B,,4 F,2 | B,,3 C, D,2 | E,2 F,4 | B,,4 C,2 | D,4 E,2 | F,2 E,2 D,2 | A,4 G,2 | %25
 F,4 E,2 | D,2 E,2 F,2 | G,2 A,4 | D,4 |[M:2/2] z2 D,A,, D,A,,G,F, | G,F,B,A, G,F,E,D, | %31
 A,,2 D,A,, D,A,B,A, | G,F,E,D, A,2 F,2 | G,2 A,2 D,4 |] %34

